build/img/icon-4.svg

<svg width="14" height="10" viewBox="0 0 14 10" fill="none" xmlns="http://www.w3.org/2000/svg">
<path fill-rule="evenodd" clip-rule="evenodd" d="M12.0004 0.874762C12.5512 1.02589 12.9849 1.4712 13.1321 2.03671C13.3996 3.06162 13.3996 5.2001 13.3996 5.2001C13.3996 5.2001 13.3996 7.3385 13.1321 8.36349C12.9849 8.92899 12.5512 9.3743 12.0004 9.52551C11.0023 9.8001 6.99961 9.8001 6.99961 9.8001C6.99961 9.8001 2.99692 9.8001 1.99874 9.52551C1.44797 9.3743 1.01423 8.92899 0.867028 8.36349C0.599609 7.3385 0.599609 5.2001 0.599609 5.2001C0.599609 5.2001 0.599609 3.06162 0.867028 2.03671C1.01423 1.4712 1.44797 1.02589 1.99874 0.874762C2.99692 0.600098 6.99961 0.600098 6.99961 0.600098C6.99961 0.600098 11.0023 0.600098 12.0004 0.874762ZM5.79962 3.40006V7.40006L8.99962 5.40013L5.79962 3.40006Z" fill="white"/>
</svg>

<svg width="14" height="10" fill="none" xmlns="http://www.w3.org/2000/svg"><path fill-rule="evenodd" clip-rule="evenodd" d="M12 .875c.551.15.985.596 1.132 1.162C13.4 3.062 13.4 5.2 13.4 5.2s0 2.138-.268 3.163A1.625 1.625 0 0112 9.526C11.002 9.8 7 9.8 7 9.8s-4.003 0-5.001-.274A1.625 1.625 0 01.867 8.363C.6 7.34.6 5.2.6 5.2s0-2.138.267-3.163A1.624 1.624 0 011.999.875c.998-.275 5-.275 5-.275S11.003.6 12 .875zM5.8 3.4v4l3.2-2-3.2-2z" fill="#fff"/></svg>
